X:138
T:Yankee Doodle
S:American Veteran Fifer #138
M:2/4
L:1/8
Q:1/8=180
K:D 
%%MIDI program 72
%%MIDI transpose 8
%%MIDI ratio 3 1
|: A | ddef | dfec | ddef | d2 cA |
ddef | gfed | cABc | d2 d:|
|: z | B>c BA | Bc d2 | A>B AG | FG A2 |
B>c BA | Bcd2 | Adce | d2 d :|



